X: 2870
T: Barlow Knife
R: reel
M: 4/4
K: Gmajor
|:"G" g2 g2 "D" fgaf|"G" g2 g2 d4|"G" g2 g2 "D" fefd|"C" e2 d2 "G" d4:|
|:"C" e2 d2 "G" BA G2|"C" e2 d2 "G" B4|"C" e2 d2 "G" BA G2|"D" A2 A2 "G" G4:|
|:"D" A2 d2 "G" BA B2|"D" A2 d2 "G" B4|"D" A2 d2 "G" BA G2|"D" A2 A2 "G" G4:|

